logos/qualcomm.svg

<?xml version="1.0" encoding="UTF-8"?>
<svg width="512px" height="95px" viewBox="0 0 512 95" version="1.1" xmlns="http://www.w3.org/2000/svg" preserveAspectRatio="xMidYMid">
    <title>Qualcomm</title>
    <g>
        <path d="M138.191024,26.9848192 C139.563133,26.9848192 140.739227,28.0955745 140.739227,29.5330225 L140.739227,78.2102388 C140.739227,79.5823483 139.497794,80.6931036 138.191024,80.6931036 L131.59183,80.6931036 C130.350398,80.6931036 129.108966,79.7130254 129.108966,78.3409159 L129.108966,73.8325563 C125.7767,78.7329472 120.026908,82.1305516 111.663574,82.1305516 C97.6811254,82.1305516 89.0564374,72.8524781 89.0564374,59.066045 L89.0564374,29.4023454 C89.0564374,28.030236 90.2978697,26.9194807 91.6046406,26.9194807 L98.2038337,26.9194807 C99.5759432,26.9194807 100.686698,28.030236 100.686698,29.4023454 L100.686698,57.1712272 C100.686698,66.1226079 105.391074,72.0684156 114.669147,72.0684156 C123.751205,72.0684156 129.108966,65.9265923 129.108966,57.3019043 L129.108966,29.4023454 C129.108966,28.030236 130.350398,26.9194807 131.59183,26.9194807 L138.191024,26.9194807 M40.8365909,2.13162821e-14 C18.2294542,2.13162821e-14 0,17.5760687 0,41.0326065 C0,64.5544828 18.2294542,82.065213 40.8365909,82.065213 C44.691565,82.065213 48.4158621,81.5425046 51.9441436,80.5624265 L56.3871647,91.9966719 C56.8445345,93.2381043 57.7592741,94.0221668 59.3927378,94.0221668 L66.4493007,94.0221668 C68.1481028,94.0221668 69.3895352,92.9114115 68.6054727,90.7552395 L62.8556807,75.7927127 C74.159249,68.6708112 81.6731817,56.0604719 81.6731817,40.967268 C81.6731817,17.5760687 63.4437276,2.13162821e-14 40.8365909,2.13162821e-14 M58.6086752,64.8811756 L53.4469301,51.4867738 C52.9895603,50.3760185 52.0748207,49.3306018 50.1146643,49.3306018 L43.3847941,49.3306018 C41.685992,49.3306018 40.3792211,50.441357 41.1632836,52.597529 L47.9584923,70.1735977 C45.7369818,70.7616447 43.3194556,71.0229988 40.8365909,71.0229988 C24.3059389,71.0229988 12.5450007,58.0206283 12.5450007,41.0326065 C12.5450007,24.0445847 24.3059389,11.0422142 40.8365909,11.0422142 C57.3672429,11.0422142 69.128181,24.0445847 69.128181,41.0326065 C69.128181,50.9640654 65.1425298,59.4580763 58.6086752,64.8811756 M511.796826,77.9488847 C512.384873,79.3209941 511.666149,80.627765 510.032685,80.627765 L502.64943,80.627765 C501.27732,80.627765 500.166565,79.9743796 499.709195,78.6022701 L486.053439,41.8820076 L472.201668,78.6022701 C471.613621,80.0397181 470.633542,80.627765 469.261433,80.627765 L462.66224,80.627765 C461.29013,80.627765 460.310052,80.0397181 459.722005,78.6022701 L445.739557,41.685992 L431.953124,78.6022701 C431.365077,79.9743796 430.384998,80.627765 429.012889,80.627765 L422.087003,80.627765 C420.714894,80.627765 419.734816,79.9743796 419.146769,78.6022701 L405.491013,41.685992 L391.377887,78.6022701 C390.78984,80.0397181 389.809762,80.627765 388.437652,80.627765 L381.838459,80.627765 C380.46635,80.627765 379.486272,80.0397181 378.898225,78.6022701 L365.111792,41.685992 L351.325359,78.6022701 C350.867989,79.9743796 349.757233,80.627765 348.385124,80.627765 L341.197884,80.627765 C339.499082,80.627765 338.845696,79.2556556 339.433743,77.9488847 L358.120567,29.0756527 C358.708614,27.6382047 359.688692,26.9194807 361.060802,26.9194807 L369.097443,26.9194807 C370.469552,26.9194807 371.449631,27.5728662 372.037677,29.0756527 L385.497418,64.7504985 L398.826481,29.0756527 C399.414528,27.6382047 400.394606,26.9194807 401.766716,26.9194807 L409.67268,26.9194807 C411.044789,26.9194807 412.024867,27.5728662 412.612914,29.0756527 L425.8113,64.7504985 L439.009686,29.0756527 C439.597733,27.6382047 440.577812,26.9194807 441.949921,26.9194807 L449.921224,26.9194807 C451.293333,26.9194807 452.273411,27.5728662 452.861458,29.0756527 L466.25586,64.7504985 L479.323569,29.0756527 C479.911616,27.6382047 480.891694,26.9194807 482.263804,26.9194807 L490.300445,26.9194807 C491.672554,26.9194807 492.652632,27.5728662 493.240679,29.0756527 L511.796826,77.9488847 M202.157459,26.9848192 L195.558266,26.9848192 C194.186157,26.9848192 193.010063,28.0955745 193.010063,29.5330225 L193.010063,33.9760436 C189.677797,28.9449756 183.143943,25.3513556 175.433994,25.3513556 C160.863499,25.3513556 148.383837,36.8509396 148.383837,53.6429458 C148.383837,70.6309676 160.928837,82.065213 175.368656,82.065213 C183.209281,82.065213 189.54712,78.471593 193.075402,73.440525 L193.075402,78.1449003 C193.075402,79.5170097 194.316834,80.627765 195.623605,80.627765 L202.222798,80.627765 C203.594907,80.627765 204.705663,79.5170097 204.705663,78.1449003 L204.705663,29.5330225 C204.640324,28.0955745 203.529569,26.9848192 202.157459,26.9848192 M176.675427,71.3496916 C167.070661,71.3496916 160.210113,63.5090661 160.210113,53.7736229 C160.210113,43.9075025 167.005322,36.3282312 176.675427,36.3282312 C186.214854,36.3282312 193.14074,43.9075025 193.14074,53.7736229 C193.075402,63.5744047 186.149516,71.3496916 176.675427,71.3496916 M280.890407,73.0484937 C282.327855,74.8126345 281.086422,76.1847439 280.30236,76.7727908 C275.728662,80.2357337 269.652177,82.1305516 263.052984,82.1305516 C246.391655,82.1305516 235.284102,69.9122436 235.284102,53.8389614 C235.284102,37.7656792 246.391655,25.4166942 263.052984,25.4166942 C269.652177,25.4166942 275.663323,27.311512 280.30236,30.7744549 C281.086422,31.3625018 282.197178,32.5385956 280.890407,34.498752 L277.754156,38.8764345 C276.512724,40.5752367 275.075276,40.1178669 273.833844,39.3338043 C270.893609,37.5696636 267.430666,36.0668771 263.445015,36.0668771 C253.709572,36.0668771 247.241056,43.9075025 247.241056,53.8389614 C247.241056,63.7704203 253.709572,71.5457072 263.445015,71.5457072 C267.496005,71.5457072 270.697594,69.9775821 273.637828,68.2787799 C274.87926,67.6253945 276.186031,67.0373476 277.558141,68.8668268 L280.890407,73.0484937 L280.890407,73.0484937 Z M311.991554,25.4820327 C296.310303,25.4820327 283.830641,37.7656792 283.830641,53.7736229 C283.830641,69.9122436 296.375642,82.065213 311.991554,82.065213 C327.672805,82.065213 340.152721,69.846905 340.152721,53.7736229 C340.217806,37.8310178 327.672805,25.4820327 311.991554,25.4820327 M311.991554,71.284353 C302.386788,71.284353 295.526241,63.5744047 295.526241,53.8389614 C295.526241,43.972841 302.32145,36.3935698 311.991554,36.3935698 C321.59632,36.3935698 328.456868,43.972841 328.456868,53.8389614 C328.456868,63.5744047 321.661659,71.284353 311.991554,71.284353 M225.287305,1.437448 C226.724753,1.437448 227.770169,2.67888036 227.770169,3.98565127 L227.770169,78.0795617 C227.770169,79.4516712 226.790091,80.627765 225.287305,80.627765 L218.688111,80.627765 C217.316002,80.627765 216.139908,79.3863326 216.139908,78.0795617 L216.139908,4.05098981 C216.139908,2.67888036 217.381341,1.50278654 218.688111,1.50278654 L225.287305,1.50278654" fill="#3253DC"></path>
    </g>
</svg>

<svg preserveAspectRatio="xMidYMid" viewBox="0 0 512 95" xmlns="http://www.w3.org/2000/svg">
  <path fill="#3253DC" d="M138.191 26.985a2.551 2.551 0 0 1 2.548 2.548V78.21c0 1.372-1.241 2.483-2.548 2.483h-6.6c-1.24 0-2.482-.98-2.482-2.352v-4.508c-3.332 4.9-9.082 8.298-17.445 8.298-13.983 0-22.608-9.279-22.608-23.065V29.402c0-1.372 1.242-2.483 2.549-2.483h6.599a2.482 2.482 0 0 1 2.483 2.483v27.77c0 8.95 4.704 14.896 13.982 14.896 9.082 0 14.44-6.141 14.44-14.766v-27.9c0-1.372 1.241-2.483 2.483-2.483h6.599M40.837 0C18.229 0 0 17.576 0 41.033c0 23.521 18.23 41.032 40.837 41.032a41.4 41.4 0 0 0 11.107-1.503l4.443 11.435c.458 1.241 1.372 2.025 3.006 2.025h7.056c1.7 0 2.94-1.11 2.156-3.267l-5.75-14.962C74.16 68.67 81.674 56.06 81.674 40.967 81.673 17.577 63.443 0 40.837 0m17.772 64.881-5.162-13.394c-.457-1.111-1.372-2.156-3.332-2.156h-6.73c-1.699 0-3.006 1.11-2.222 3.267l6.795 17.576c-2.221.588-4.639.849-7.121.849-16.531 0-28.292-13.002-28.292-29.99s11.76-29.99 28.292-29.99c16.53 0 28.291 13.002 28.291 29.99 0 9.931-3.985 18.425-10.52 23.848m453.19 13.069c.588 1.372-.13 2.679-1.764 2.679h-7.384c-1.372 0-2.482-.654-2.94-2.026l-13.656-36.72-13.851 36.72c-.588 1.438-1.568 2.026-2.94 2.026h-6.6c-1.372 0-2.352-.588-2.94-2.026L445.74 41.686l-13.787 36.916c-.588 1.372-1.568 2.026-2.94 2.026h-6.926c-1.372 0-2.352-.654-2.94-2.026L405.49 41.686l-14.113 36.916c-.588 1.438-1.568 2.026-2.94 2.026h-6.6c-1.372 0-2.352-.588-2.94-2.026l-13.786-36.916-13.787 36.916c-.457 1.372-1.568 2.026-2.94 2.026h-7.187c-1.699 0-2.352-1.372-1.764-2.68l18.687-48.872c.588-1.438 1.568-2.157 2.94-2.157h8.036c1.373 0 2.353.654 2.94 2.157l13.46 35.674 13.33-35.674c.588-1.438 1.568-2.157 2.94-2.157h7.906c1.372 0 2.352.654 2.94 2.157L425.81 64.75l13.199-35.674c.588-1.438 1.568-2.157 2.94-2.157h7.971c1.372 0 2.352.654 2.94 2.157l13.395 35.674 13.068-35.674c.588-1.438 1.568-2.157 2.94-2.157h8.036c1.373 0 2.353.654 2.94 2.157l18.557 48.873m-309.64-50.964h-6.599a2.551 2.551 0 0 0-2.548 2.548v4.443c-3.332-5.031-9.866-8.625-17.576-8.625-14.57 0-27.05 11.5-27.05 28.292 0 16.988 12.545 28.422 26.985 28.422 7.84 0 14.178-3.593 17.706-8.624v4.704c0 1.372 1.242 2.483 2.549 2.483h6.599a2.482 2.482 0 0 0 2.483-2.483V29.533c-.066-1.437-1.176-2.548-2.549-2.548M176.675 71.35c-9.604 0-16.465-7.84-16.465-17.576 0-9.866 6.795-17.446 16.465-17.446 9.54 0 16.466 7.58 16.466 17.446-.066 9.8-6.991 17.576-16.466 17.576m104.215 1.698c1.438 1.765.196 3.137-.588 3.725-4.573 3.463-10.65 5.358-17.249 5.358-16.661 0-27.769-12.219-27.769-28.292s11.108-28.422 27.769-28.422c6.6 0 12.61 1.895 17.25 5.357.783.589 1.894 1.765.587 3.725l-3.136 4.377c-1.241 1.7-2.679 1.242-3.92.458-2.94-1.764-6.403-3.267-10.389-3.267-9.735 0-16.204 7.84-16.204 17.772 0 9.931 6.469 17.707 16.204 17.707 4.051 0 7.253-1.568 10.193-3.267 1.241-.654 2.548-1.242 3.92.588l3.332 4.181Zm31.102-47.566c-15.682 0-28.161 12.284-28.161 28.292 0 16.138 12.545 28.291 28.16 28.291 15.682 0 28.162-12.218 28.162-28.291.065-15.943-12.48-28.292-28.161-28.292m0 45.802c-9.605 0-16.466-7.71-16.466-17.445 0-9.866 6.795-17.445 16.466-17.445 9.604 0 16.465 7.579 16.465 17.445 0 9.735-6.795 17.445-16.465 17.445M225.287 1.437c1.438 0 2.483 1.242 2.483 2.549V78.08c0 1.372-.98 2.548-2.483 2.548h-6.599c-1.372 0-2.548-1.242-2.548-2.548V4.05c0-1.372 1.241-2.548 2.548-2.548h6.6"/>
</svg>
